X:0
T:The Braes of Glenorchy
G:reel
S:McGlashan, A Collection of Strathspey Reels
N:(pencil note) The Mason's Apron
M:C|
L:1/8
Q:1/2=104
K:GMix
(c|B>A)GA GAGE  |D>EG>A  B2(A>G)| c(AA>B) ABAG | AGAB      c2Ad|
   BGGA   G>AGE |DEGA    B2 AG  | ABcd    e>deg| G/G/G B>A G3 ||
(c|B>G)dG B>Gd>G|BGdG    B2 Gd  |^cAeA   ^fAeA |^cAeA     Tc2Ad|
   BGdG   eGdG  |D>EG>A TB2 AG  | ABcd    edeg | G/G/G BG  G2 |]

Lydian mode would be the G-mode on the pipes, but it's impractical; the G's
are not tuned so as to have any sort of reasonable harmonic relationship
with other notes on the chanter, and are not even exactly an octave apart,
so the G-mode is only used for a few desperate efforts at arranging non-pipe
music which is actually in G major.  Locrian mode would be the C-final mode,
but the C on the chanter is the most strangely tuned of all, with no other
note having any detectable harmonic relationship to it.

